X:153
T: ES HAT E BUUR ES TOECHTERLI
N: E0080
O: Europa, Mitteleuropa, Schweiz
R: erzaehlendes Volks - Lied, Sage, Liebe
M: 2/4
L: 1/8
K: F
C | FGAF | c2G2 | F2z
c | cdec | f2d2 | c2z
c | fedc | fdc
C | FGAB | c2G2 | F2z

@@@ Tune index: 3803
